packages/ffe-icons/icons/filled/md/view_week.svg

<svg xmlns="http://www.w3.org/2000/svg" height="24" viewBox="0 -960 960 960" width="24"><path d="M161.539-180.001q-25.692 0-43.615-17.923-17.923-17.923-17.923-43.615v-476.922q0-25.692 17.923-43.615 17.923-17.923 43.615-17.923h89.925q25.307 0 43.422 18.115t18.115 43.423v476.922q0 25.308-18.115 43.423-18.115 18.115-43.422 18.115h-89.925Zm273.613 0q-25.307 0-43.422-18.115t-18.115-43.423v-476.922q0-25.308 18.115-43.423 18.115-18.115 43.422-18.115h90.311q25.307 0 43.422 18.115T587-718.461v476.922q0 25.308-18.115 43.423-18.115 18.115-43.422 18.115h-90.311Zm273.384 0q-25.307 0-43.422-18.115t-18.115-43.423v-476.922q0-25.308 18.115-43.423 18.115-18.115 43.422-18.115h89.925q25.692 0 43.615 17.923 17.923 17.923 17.923 43.615v476.922q0 25.692-17.923 43.615-17.923 17.923-43.615 17.923h-89.925Z"/></svg>

<svg xmlns="http://www.w3.org/2000/svg" height="24" viewBox="0 -960 960 960" width="24"><path d="M161.54-180q-25.69 0-43.62-17.92Q100-215.85 100-241.54v-476.92q0-25.69 17.92-43.62Q135.85-780 161.54-780h89.92q25.31 0 43.43 18.12Q313-743.77 313-718.46v476.92q0 25.31-18.11 43.42Q276.77-180 251.46-180h-89.92Zm273.61 0q-25.3 0-43.42-18.12-18.11-18.11-18.11-43.42v-476.92q0-25.31 18.11-43.42Q409.85-780 435.15-780h90.31q25.31 0 43.43 18.12Q587-743.77 587-718.46v476.92q0 25.31-18.11 43.42Q550.77-180 525.46-180h-90.31Zm273.39 0q-25.31 0-43.43-18.12Q647-216.23 647-241.54v-476.92q0-25.31 18.11-43.42Q683.23-780 708.54-780h89.92q25.69 0 43.62 17.92Q860-744.15 860-718.46v476.92q0 25.69-17.92 43.62Q824.15-180 798.46-180h-89.92Z"/></svg>
